X:34
T:George White's Favourite
M:C|
L:1/8
Q:120
R:Reel (Key of G)
K:Gmaj
"Em"eB~B2 eBdB | "D"AGAB GEDE | "G"GB~B2 eB~B2 | eBdB "D"A2Bd |
"Em"eB~B2 eBdB | "D"AGAB GEDE | "G"GABd "C"gedB |1 "D"AGAB "G"G2Bd :|2 "D"AGAB "G"G4 |:
"G"gede gaba | "C"~g3a gedB | "G"dega bgag | "Am"eaag "D"a2ga |
"G"bgeg d2de | "C"gede gaba | "G"~g3d "C"egdB |1 "D"AGAB "G"G4 :|2 "D"AGAB "G"G2Bd|]
